dist/assets/img/icons/star-filled.svg

<svg width="16" height="17" viewBox="0 0 16 17" fill="none" xmlns="http://www.w3.org/2000/svg">
<path d="M7.63899 2.25655C7.78389 1.9529 8.21611 1.9529 8.36101 2.25655L10.2106 6.13272C10.2689 6.25492 10.3851 6.33933 10.5194 6.35703L14.7774 6.91831C15.1109 6.96228 15.2445 7.37335 15.0005 7.60499L11.8856 10.5619C11.7874 10.6551 11.743 10.7917 11.7677 10.9248L12.5497 15.1479C12.6109 15.4787 12.2612 15.7328 11.9655 15.5723L8.19081 13.5236C8.0718 13.459 7.9282 13.459 7.80919 13.5236L4.03447 15.5723C3.73876 15.7328 3.38909 15.4787 3.45035 15.1479L4.23233 10.9248C4.25698 10.7917 4.21261 10.6551 4.11441 10.5619L0.999509 7.60499C0.755497 7.37335 0.889061 6.96228 1.22262 6.91831L5.48065 6.35703C5.61489 6.33933 5.73106 6.25492 5.78938 6.13272L7.63899 2.25655Z" fill="black"/>
</svg>

<svg width="16" height="17" fill="none" xmlns="http://www.w3.org/2000/svg"><path d="M7.639 2.257a.4.4 0 01.722 0l1.85 3.876a.4.4 0 00.308.224l4.258.561a.4.4 0 01.224.687l-3.115 2.957a.4.4 0 00-.118.363l.782 4.223a.4.4 0 01-.585.424l-3.774-2.048a.4.4 0 00-.382 0l-3.775 2.048a.4.4 0 01-.584-.424l.782-4.223a.4.4 0 00-.118-.363L1 7.605a.4.4 0 01.223-.687l4.258-.561a.4.4 0 00.308-.224l1.85-3.876z" fill="#000"/></svg>
